X:1
T:Stukely, CM
T:Stukely, CM
T:From Mendelssohn (1809-1847)
T:Public Domain Courtesy of the Cyber Hymnal™
C:From Mendelssohn (1809-1847)
Z:Public Domain
Z:Courtesy of the Cyber Hymnal™
%%score ( 1 2 ) ( 3 4 )
L:1/8
Q:1/4=115
M:4/4
K:G
V:1 treble 
V:2 treble 
V:3 bass 
V:4 bass 
V:1
 [GB]2 | [Gd]2 [Ge]2 [Gd]2 [GB]2 | [DG]2 [FA]2 [GB]2 [GB]2 | [EA]2 [Ad]2 [Gd]2 [G^c]2 | [Fd]6 D2 | %5
 [DG]2 [DA]2 [DB]2 [GB]2 | [Gc]2 [Gd]2 [Ge]2 [DF]2 | [DG]2 [Gc]2 [GB]2 [FA]2 x | G6 |] %9
V:2
 x2 | x8 | x8 | x8 | x6 D2 | x8 | x8 | x9 | G6 |] %9
V:3
 [G,D]2 | [G,B,]2 [C,C]2 [G,B,]2 [G,D]2 | B,2 [A,C]2 [G,D]2 [G,D]2 | %3
 [G,^C]2 [F,D]2 [E,E]2 [A,,E]2 | [D,D]6 [D,F,]2 | [B,,G,]2 [C,F,]2 G,2 [G,D]2 | %6
 [E,C]2 [D,B,]2 [C,C]2 [C,A,]2 | [B,,D]2 [A,,E]2 D3 (z C) | [G,,B,]6 |] %9
V:4
 x2 | x8 | B,2 x6 | x8 | x8 | x4 G,2 x2 | x8 | x4 D,2 D,2 x | x6 |] %9

